augmented-chess/src/assets/pieces/black/black-rook-resource.svg

<?xml version="1.0" encoding="UTF-8" standalone="no"?>
<!-- Generator: Adobe Illustrator 19.0.0, SVG Export Plug-In . SVG Version: 6.00 Build 0)  -->

<svg
   xmlns:dc="http://purl.org/dc/elements/1.1/"
   xmlns:cc="http://creativecommons.org/ns#"
   xmlns:rdf="http://www.w3.org/1999/02/22-rdf-syntax-ns#"
   xmlns:svg="http://www.w3.org/2000/svg"
   xmlns="http://www.w3.org/2000/svg"
   xmlns:sodipodi="http://sodipodi.sourceforge.net/DTD/sodipodi-0.dtd"
   xmlns:inkscape="http://www.inkscape.org/namespaces/inkscape"
   version="1.1"
   id="Layer_1"
   x="0px"
   y="0px"
   viewBox="0 0 512 512"
   style="enable-background:new 0 0 512 512;"
   xml:space="preserve"
   sodipodi:docname="black-rook-resource.svg"
   inkscape:version="0.92.1 r15371"><metadata
     id="metadata55"><rdf:RDF><cc:Work
         rdf:about=""><dc:format>image/svg+xml</dc:format><dc:type
           rdf:resource="http://purl.org/dc/dcmitype/StillImage" /></cc:Work></rdf:RDF></metadata><defs
     id="defs53" /><sodipodi:namedview
     pagecolor="#ffffff"
     bordercolor="#666666"
     borderopacity="1"
     objecttolerance="10"
     gridtolerance="10"
     guidetolerance="10"
     inkscape:pageopacity="0"
     inkscape:pageshadow="2"
     inkscape:window-width="1920"
     inkscape:window-height="1024"
     id="namedview51"
     showgrid="false"
     inkscape:zoom="0.4609375"
     inkscape:cx="-142.10169"
     inkscape:cy="256"
     inkscape:window-x="0"
     inkscape:window-y="31"
     inkscape:window-maximized="1"
     inkscape:current-layer="Layer_1" /><g
     id="g6"
     inkscape:export-filename="/home/tgm/Downloads/peices/black/256/black-rook-256.png"
     inkscape:export-xdpi="48"
     inkscape:export-ydpi="48"><g
       id="g4"><path
         d="M391.529,0c-12.475,0-22.588,10.114-22.588,22.588v67.765h-45.176V22.588C323.765,10.114,313.651,0,301.176,0h-90.353    c-12.475,0-22.588,10.114-22.588,22.588v67.765h-45.176V22.588C143.059,10.114,132.945,0,120.471,0S97.882,10.114,97.882,22.588    v158.118h82.823h150.588h82.824V22.588C414.118,10.114,404.004,0,391.529,0z"
         id="path2" /></g></g><g
     id="g12"
     inkscape:export-filename="/home/tgm/Downloads/peices/black/256/black-rook-256.png"
     inkscape:export-xdpi="48"
     inkscape:export-ydpi="48"><g
       id="g10"><path
         d="M428.951,486.218l-11.377-79.63h-71.221H165.647H94.426l-11.377,79.63c-0.925,6.483,1.007,13.047,5.298,17.994    c4.292,4.947,10.516,7.788,17.065,7.788h301.177c6.549,0,12.773-2.842,17.065-7.788    C427.943,499.265,429.875,492.701,428.951,486.218z"
         id="path8" /></g></g><g
     id="g18"
     inkscape:export-filename="/home/tgm/Downloads/peices/black/256/black-rook-256.png"
     inkscape:export-xdpi="48"
     inkscape:export-ydpi="48"><g
       id="g16"><polygon
         points="355.845,225.882 156.155,225.882 144.861,361.412 367.139,361.412   "
         id="polygon14" /></g></g><g
     id="g20"
     inkscape:export-filename="/home/tgm/Downloads/peices/black/256/black-rook-256.png"
     inkscape:export-xdpi="48"
     inkscape:export-ydpi="48" /><g
     id="g22"
     inkscape:export-filename="/home/tgm/Downloads/peices/black/256/black-rook-256.png"
     inkscape:export-xdpi="48"
     inkscape:export-ydpi="48" /><g
     id="g24"
     inkscape:export-filename="/home/tgm/Downloads/peices/black/256/black-rook-256.png"
     inkscape:export-xdpi="48"
     inkscape:export-ydpi="48" /><g
     id="g26"
     inkscape:export-filename="/home/tgm/Downloads/peices/black/256/black-rook-256.png"
     inkscape:export-xdpi="48"
     inkscape:export-ydpi="48" /><g
     id="g28"
     inkscape:export-filename="/home/tgm/Downloads/peices/black/256/black-rook-256.png"
     inkscape:export-xdpi="48"
     inkscape:export-ydpi="48" /><g
     id="g30"
     inkscape:export-filename="/home/tgm/Downloads/peices/black/256/black-rook-256.png"
     inkscape:export-xdpi="48"
     inkscape:export-ydpi="48" /><g
     id="g32"
     inkscape:export-filename="/home/tgm/Downloads/peices/black/256/black-rook-256.png"
     inkscape:export-xdpi="48"
     inkscape:export-ydpi="48" /><g
     id="g34"
     inkscape:export-filename="/home/tgm/Downloads/peices/black/256/black-rook-256.png"
     inkscape:export-xdpi="48"
     inkscape:export-ydpi="48" /><g
     id="g36"
     inkscape:export-filename="/home/tgm/Downloads/peices/black/256/black-rook-256.png"
     inkscape:export-xdpi="48"
     inkscape:export-ydpi="48" /><g
     id="g38"
     inkscape:export-filename="/home/tgm/Downloads/peices/black/256/black-rook-256.png"
     inkscape:export-xdpi="48"
     inkscape:export-ydpi="48" /><g
     id="g40"
     inkscape:export-filename="/home/tgm/Downloads/peices/black/256/black-rook-256.png"
     inkscape:export-xdpi="48"
     inkscape:export-ydpi="48" /><g
     id="g42"
     inkscape:export-filename="/home/tgm/Downloads/peices/black/256/black-rook-256.png"
     inkscape:export-xdpi="48"
     inkscape:export-ydpi="48" /><g
     id="g44"
     inkscape:export-filename="/home/tgm/Downloads/peices/black/256/black-rook-256.png"
     inkscape:export-xdpi="48"
     inkscape:export-ydpi="48" /><g
     id="g46"
     inkscape:export-filename="/home/tgm/Downloads/peices/black/256/black-rook-256.png"
     inkscape:export-xdpi="48"
     inkscape:export-ydpi="48" /><g
     id="g48"
     inkscape:export-filename="/home/tgm/Downloads/peices/black/256/black-rook-256.png"
     inkscape:export-xdpi="48"
     inkscape:export-ydpi="48" /></svg>

<?xml version="1.0" encoding="UTF-8" standalone="no"?>
<!-- Generator: Adobe Illustrator 19.0.0, SVG Export Plug-In . SVG Version: 6.00 Build 0)  -->

<svg
   xmlns:dc="http://purl.org/dc/elements/1.1/"
   xmlns:cc="http://creativecommons.org/ns#"
   xmlns:rdf="http://www.w3.org/1999/02/22-rdf-syntax-ns#"
   xmlns:svg="http://www.w3.org/2000/svg"
   xmlns="http://www.w3.org/2000/svg"
   xmlns:sodipodi="http://sodipodi.sourceforge.net/DTD/sodipodi-0.dtd"
   xmlns:inkscape="http://www.inkscape.org/namespaces/inkscape"
   version="1.1"
   id="Layer_1"
   x="0px"
   y="0px"
   viewBox="0 0 256 256"
   xml:space="preserve"
   width="256"
   height="256"
   sodipodi:docname="black-rook-resource.svg"
   inkscape:export-filename="/home/tgm/Downloads/peices/white/256/white-rook-256.png"
   inkscape:export-xdpi="48"
   inkscape:export-ydpi="48"
   inkscape:version="0.48.5 r10040"><metadata
     id="metadata55"><rdf:RDF><cc:Work
         rdf:about=""><dc:format>image/svg+xml</dc:format><dc:type
           rdf:resource="http://purl.org/dc/dcmitype/StillImage" /><dc:title></dc:title></cc:Work></rdf:RDF></metadata><defs
     id="defs53" /><sodipodi:namedview
     pagecolor="#ffffff"
     bordercolor="#666666"
     borderopacity="1"
     objecttolerance="10"
     gridtolerance="10"
     guidetolerance="10"
     inkscape:pageopacity="0"
     inkscape:pageshadow="2"
     inkscape:window-width="1920"
     inkscape:window-height="1024"
     id="namedview51"
     showgrid="false"
     inkscape:zoom="0.4609375"
     inkscape:cx="-1165.0169"
     inkscape:cy="256"
     inkscape:window-x="0"
     inkscape:window-y="31"
     inkscape:window-maximized="1"
     inkscape:current-layer="Layer_1" /><g
     id="g3005"
     style="fill:#000000;stroke:#ffffff;stroke-width:10;stroke-linejoin:round;stroke-miterlimit:4;stroke-opacity:1;stroke-dasharray:none;fill-opacity:1"
     inkscape:export-filename="/media/storage/repos/sw7-we/augmented-chess/src/assets/pieces/black/256/black-rook-256.png"
     inkscape:export-xdpi="88.275864"
     inkscape:export-ydpi="88.275864"
     transform="matrix(0.5,0,0,0.5,2.3602665,2.1694915)"><g
       id="g6"
       style="fill:#000000;stroke:#ffffff;stroke-width:10;stroke-linejoin:round;stroke-miterlimit:4;stroke-opacity:1;stroke-dasharray:none;fill-opacity:1"><g
         id="g4"
         style="fill:#000000;stroke:#ffffff;stroke-width:10;stroke-linejoin:round;stroke-miterlimit:4;stroke-opacity:1;stroke-dasharray:none;fill-opacity:1"><path
           id="path2"
           d="M 391.529,0 C 379.054,0 368.941,10.114 368.941,22.588 V 90.353 H 323.765 V 22.588 C 323.765,10.114 313.651,0 301.176,0 H 210.823 C 198.348,0 188.235,10.114 188.235,22.588 V 90.353 H 143.059 V 22.588 C 143.059,10.114 132.945,0 120.471,0 107.997,0 97.882,10.114 97.882,22.588 v 158.118 h 82.823 150.588 82.824 V 22.588 C 414.118,10.114 404.004,0 391.529,0 z"
           style="fill:#000000;stroke:#ffffff;stroke-width:10;stroke-linejoin:round;stroke-miterlimit:4;stroke-opacity:1;stroke-dasharray:none;fill-opacity:1"
           inkscape:connector-curvature="0" /></g></g><g
       id="g12"
       style="fill:#000000;stroke:#ffffff;stroke-width:10;stroke-linejoin:round;stroke-miterlimit:4;stroke-opacity:1;stroke-dasharray:none;fill-opacity:1"><g
         id="g10"
         style="fill:#000000;stroke:#ffffff;stroke-width:10;stroke-linejoin:round;stroke-miterlimit:4;stroke-opacity:1;stroke-dasharray:none;fill-opacity:1"><path
           id="path8"
           d="m 428.951,486.218 -11.377,-79.63 H 346.353 165.647 94.426 l -11.377,79.63 c -0.925,6.483 1.007,13.047 5.298,17.994 4.292,4.947 10.516,7.788 17.065,7.788 h 301.177 c 6.549,0 12.773,-2.842 17.065,-7.788 4.289,-4.947 6.221,-11.511 5.297,-17.994 z"
           style="fill:#000000;stroke:#ffffff;stroke-width:10;stroke-linejoin:round;stroke-miterlimit:4;stroke-opacity:1;stroke-dasharray:none;fill-opacity:1"
           inkscape:connector-curvature="0" /></g></g><g
       id="g18"
       style="fill:#000000;stroke:#ffffff;stroke-width:10;stroke-linejoin:round;stroke-miterlimit:4;stroke-opacity:1;stroke-dasharray:none;fill-opacity:1"><g
         id="g16"
         style="fill:#000000;stroke:#ffffff;stroke-width:10;stroke-linejoin:round;stroke-miterlimit:4;stroke-opacity:1;stroke-dasharray:none;fill-opacity:1"><polygon
           id="polygon14"
           points="355.845,225.882 156.155,225.882 144.861,361.412 367.139,361.412 "
           style="fill:#000000;stroke:#ffffff;stroke-width:10;stroke-linejoin:round;stroke-miterlimit:4;stroke-opacity:1;stroke-dasharray:none;fill-opacity:1" /></g></g><g
       id="g20"
       style="fill:#000000;stroke:#ffffff;stroke-width:10;stroke-linejoin:round;stroke-miterlimit:4;stroke-opacity:1;stroke-dasharray:none;fill-opacity:1" /><g
       id="g22"
       style="fill:#000000;stroke:#ffffff;stroke-width:10;stroke-linejoin:round;stroke-miterlimit:4;stroke-opacity:1;stroke-dasharray:none;fill-opacity:1" /><g
       id="g24"
       style="fill:#000000;stroke:#ffffff;stroke-width:10;stroke-linejoin:round;stroke-miterlimit:4;stroke-opacity:1;stroke-dasharray:none;fill-opacity:1" /><g
       id="g26"
       style="fill:#000000;stroke:#ffffff;stroke-width:10;stroke-linejoin:round;stroke-miterlimit:4;stroke-opacity:1;stroke-dasharray:none;fill-opacity:1" /><g
       id="g28"
       style="fill:#000000;stroke:#ffffff;stroke-width:10;stroke-linejoin:round;stroke-miterlimit:4;stroke-opacity:1;stroke-dasharray:none;fill-opacity:1" /><g
       id="g30"
       style="fill:#000000;stroke:#ffffff;stroke-width:10;stroke-linejoin:round;stroke-miterlimit:4;stroke-opacity:1;stroke-dasharray:none;fill-opacity:1" /><g
       id="g32"
       style="fill:#000000;stroke:#ffffff;stroke-width:10;stroke-linejoin:round;stroke-miterlimit:4;stroke-opacity:1;stroke-dasharray:none;fill-opacity:1" /><g
       id="g34"
       style="fill:#000000;stroke:#ffffff;stroke-width:10;stroke-linejoin:round;stroke-miterlimit:4;stroke-opacity:1;stroke-dasharray:none;fill-opacity:1" /><g
       id="g36"
       style="fill:#000000;stroke:#ffffff;stroke-width:10;stroke-linejoin:round;stroke-miterlimit:4;stroke-opacity:1;stroke-dasharray:none;fill-opacity:1" /><g
       id="g38"
       style="fill:#000000;stroke:#ffffff;stroke-width:10;stroke-linejoin:round;stroke-miterlimit:4;stroke-opacity:1;stroke-dasharray:none;fill-opacity:1" /><g
       id="g40"
       style="fill:#000000;stroke:#ffffff;stroke-width:10;stroke-linejoin:round;stroke-miterlimit:4;stroke-opacity:1;stroke-dasharray:none;fill-opacity:1" /><g
       id="g42"
       style="fill:#000000;stroke:#ffffff;stroke-width:10;stroke-linejoin:round;stroke-miterlimit:4;stroke-opacity:1;stroke-dasharray:none;fill-opacity:1" /><g
       id="g44"
       style="fill:#000000;stroke:#ffffff;stroke-width:10;stroke-linejoin:round;stroke-miterlimit:4;stroke-opacity:1;stroke-dasharray:none;fill-opacity:1" /><g
       id="g46"
       style="fill:#000000;stroke:#ffffff;stroke-width:10;stroke-linejoin:round;stroke-miterlimit:4;stroke-opacity:1;stroke-dasharray:none;fill-opacity:1" /><g
       id="g48"
       style="fill:#000000;stroke:#ffffff;stroke-width:10;stroke-linejoin:round;stroke-miterlimit:4;stroke-opacity:1;stroke-dasharray:none;fill-opacity:1" /></g></svg>
